**kern	**silbe	**harmony	**phrase	**leadinstrument	**rhyme	**timestamp	**harte
*ICvox	*	*M4/4	*	*	*	*	*M4/4
*VRlead	*	*	*	*	*	*	*
*Hstimme	*	*	*	*	*	*	*
*D-:	*	*D-:	*	*	*	*	*D-:
*M4/4	*	*	*	*	*	*	*
*clefG2	*	*	*	*	*	*	*
r;	.	1r;	.	r	.	0	N.C.
=1	=1	=1	=1	=1	=1	=1	=1
*>Letter>B	*>Letter>B	*>Letter>B	*>Letter>B	*>Letter>B	*>Letter>B	*>Letter>B	*>Letter>B
*>Label>Intro	*>Label>Intro	*>Label>Intro	*>Label>Intro	*>Label>Intro	*>Label>Intro	*>Label>Intro	*>Label>Intro
1r	.	2D-M	newline	r	.	0.458	D-:maj
.	.	2D-M	.	r	.	1.343	D-:maj6
=2	=2	=2	=2	=2	=2	=2	=2
1r	.	2D-MM	.	r	.	2.229	D-:maj7
.	.	2D-M	.	r	.	3.114	D-:maj6
=3	=3	=3	=3	=3	=3	=3	=3
1r	.	2D-M	.	r	.	4	D-:maj
.	.	2D-M	.	r	.	4.885	D-:maj6
=4	=4	=4	=4	=4	=4	=4	=4
2r	.	2D-MM	.	r	.	5.77	D-:maj7
4r	.	2D-M	.	r	.	6.656	D-:maj6
4a-	I	.	.	.	.	.	.
=5	=5	=5	=5	=5	=5	=5	=5
*>Letter>A	*>Letter>A	*>Letter>A	*>Letter>A	*>Letter>A	*>Letter>A	*>Letter>A	*>Letter>A
*>Label>Verse	*>Label>Verse	*>Label>Verse	*>Label>Verse	*>Label>Verse	*>Label>Verse	*>Label>Verse	*>Label>Verse
2dd-	want	2D-M	newline	voice	.	7.541	D-:maj
4.cc	you	2D-M	.	voice	.	8.438	D-:maj6
8cc	to	.	.	.	.	.	.
=6	=6	=6	=6	=6	=6	=6	=6
4b-	tell	2D-MM	.	voice	.	9.334	D-:maj7
4a-	me	.	.	.	.	.	.
4g	why	2D-M	.	voice	.	10.231	D-:maj6
4a-	you	.	.	.	.	.	.
=7	=7	=7	=7	=7	=7	=7	=7
4r	.	2D-M	.	voice	.	11.127	D-:maj
4b-	walked	.	.	.	.	.	.
8.f	out	2D-M	.	voice	.	12.024	D-:maj6
8.f	on	.	.	.	.	.	.
[8f	me	.	.	.	.	.	.
=8	=8	=8	=8	=8	=8	=8	=8
2f]	_	2D-MM	.	voice	.	12.92	D-:maj7
2r	.	2D-M	.	voice	.	13.817	D-:maj6
=9	=9	=9	=9	=9	=9	=9	=9
2.dd-	I'm	2D-M	newline	voice	.	14.714	D-:maj
.	.	2D-M	.	voice	.	15.611	D-:maj6
4cc	so	.	.	.	.	.	.
=10	=10	=10	=10	=10	=10	=10	=10
4b-	lone-	2D-MM	.	voice	.	16.509	D-:maj7
4a-	-some	.	.	.	.	.	.
4.cc	ev-	2D-M	.	voice	.	17.407	D-:maj6
[8a-	-ery	.	.	.	.	.	.
=11	=11	=11	=11	=11	=11	=11	=11
4a-]	_	2A-Mm	.	voice	.	18.304	A-:7
4g-	day	.	.	.	A	.	.
[2a-	_	2A-Mm	.	voice	.	19.202	A-:9
=12	=12	=12	=12	=12	=12	=12	=12
2.a-]	_	2A-Mm	.	voice	.	20.1	A-:7
.	.	2A-Mm	.	voice	.	20.998	A-:9
4a-	I	.	.	.	.	.	.
=13	=13	=13	=13	=13	=13	=13	=13
2ee-	want	2A-Mm	newline	voice	.	21.895	A-:7
4.dd-	you	2A-Mm	.	voice	.	22.793	A-:9
8dd-	to	.	.	.	.	.	.
=14	=14	=14	=14	=14	=14	=14	=14
4cc	know	2A-Mm	.	voice	.	23.691	A-:7
4a-	that	.	.	.	.	.	.
4g	since	2A-Mm	.	voice	.	24.589	A-:9
4a-	you	.	.	.	.	.	.
=15	=15	=15	=15	=15	=15	=15	=15
4r	.	2A-Mm	.	voice	.	25.487	A-:7
4b-	walked	.	.	.	.	.	.
8.a-	out	2A-Mm	.	voice	.	26.384	A-:9
8.b-	on	.	.	.	.	.	.
[8a-	me	.	.	.	.	.	.
=16	=16	=16	=16	=16	=16	=16	=16
2a-]	_	2A-Mm	.	voice	.	27.282	A-:7
2r	.	2A-Mm	.	voice	.	28.18	A-:9
=17	=17	=17	=17	=17	=17	=17	=17
4b-	No-	2A-Mm	newline	voice	.	29.078	A-:7
4cc	-thin'	.	.	.	.	.	.
4.a-	seems	2A-Mm	.	voice	.	29.964	A-:9
[8cc	to	.	.	.	.	.	.
=18	=18	=18	=18	=18	=18	=18	=18
8cc]	_	2A-Mm	.	voice	.	30.849	A-:7
4a-	be	.	.	.	.	.	.
4b-	the	.	.	.	.	.	.
.	.	2A-Mm	.	voice	.	31.735	A-:9
4g-	same	.	.	.	.	.	.
[8a-	old	.	.	.	.	.	.
=19	=19	=19	=19	=19	=19	=19	=19
8a-]	_	2D-M	.	voice	.	32.621	D-:maj
[8f	way	.	.	.	A	.	.
2.f]	_	.	.	.	.	.	.
.	.	2D-M	.	voice	.	33.507	D-:maj6
=20	=20	=20	=20	=20	=20	=20	=20
1r	.	2D-MM	.	voice	.	34.392	D-:maj7
.	.	2D-M	.	voice	.	35.278	D-:maj6
=21	=21	=21	=21	=21	=21	=21	=21
4.dd-	Think	2D-M	newline	voice	.	36.164	D-:maj
8dd-	a-	.	.	.	.	.	.
4.cc	-bout	2D-M	.	voice	.	37.064	D-:maj6
8cc	the	.	.	.	.	.	.
=22	=22	=22	=22	=22	=22	=22	=22
4b-	love	2D-MM	.	voice	.	37.964	D-:maj7
4a-	that	.	.	.	.	.	.
4g	burns	2D-M	.	voice	.	38.863	D-:maj6
8a-	with	.	.	.	.	.	.
[8b-	in	.	.	.	.	.	.
=23	=23	=23	=23	=23	=23	=23	=23
4b-]	_	2D-M	.	voice	.	39.763	D-:maj
8f	my	.	.	.	.	.	.
[8f	heart	.	.	.	.	.	.
4f]	_	2D-M	.	voice	.	40.663	D-:maj6
8e	for	.	.	.	.	.	.
[8f	you	.	.	.	.	.	.
=24	=24	=24	=24	=24	=24	=24	=24
2f]	_	2D-MM	.	voice	.	41.563	D-:maj7
8r	.	2D-M	.	voice	.	42.463	D-:maj6
8f	The	.	.	.	.	.	.
4e-	good	.	.	.	.	.	.
=25	=25	=25	=25	=25	=25	=25	=25
4d-	times	2D-M	newline	voice	.	43.362	D-:maj
4e-	we	.	.	.	.	.	.
4f	had	2D-M	.	voice	.	44.253	D-:maj6
8r	.	.	.	.	.	.	.
[8a-	be	.	.	.	.	.	.
=26	=26	=26	=26	=26	=26	=26	=26
8a-]	_	2D-MM	.	voice	.	45.143	D-:maj7
4a-	fore	.	.	.	.	.	.
8a-	you	.	.	.	.	.	.
4.a-	went	2D-M	.	voice	.	46.034	D-:maj6
8a-	a-	.	.	.	.	.	.
=27	=27	=27	=27	=27	=27	=27	=27
2b-	-way	2G-M	.	voice	A	46.924	G-:maj
2a-	oh	2D-M	.	voice	.	47.814	D-:maj/3
=28	=28	=28	=28	=28	=28	=28	=28
2.g-	me	1E-m	.	voice	.	48.705	E-:min
4r	.	.	.	.	.	.	.
=29	=29	=29	=29	=29	=29	=29	=29
4g-	Walk	1G-M	newline	voice	.	50.486	G-:maj6
4ee-	right	.	.	.	.	.	.
4.ee-	back	.	.	.	.	.	.
8ee-	to	.	.	.	.	.	.
=30	=30	=30	=30	=30	=30	=30	=30
4ee-	me	1G-M	.	voice	.	52.289	G-:maj6
4dd-	this	.	.	.	.	.	.
8cc	mi-	.	.	.	(B	.	.
8b-	-nute	.	.	.	b)	.	.
4r	.	.	.	.	.	.	.
=31	=31	=31	=31	=31	=31	=31	=31
8r	.	1D-M	.	voice	.	54.092	D-:maj
4dd-	Bring	.	.	.	.	.	.
8dd-	your	.	.	.	.	.	.
4dd-	love	.	.	.	.	.	.
8r	.	.	.	.	.	.	.
8dd-	to	.	.	.	.	.	.
=32	=32	=32	=32	=32	=32	=32	=32
8dd-	me	1D-M	.	voice	.	55.896	D-:maj
4.cc	don't	.	.	.	.	.	.
4b-	send	.	.	.	(B	.	.
4a-	it	.	.	.	b)	.	.
=33	=33	=33	=33	=33	=33	=33	=33
2cc	I'm	2A-Mm	.	voice	.	57.699	A-:7
2b-	so	2A-Mm	.	voice	.	58.601	A-:9
=34	=34	=34	=34	=34	=34	=34	=34
4a-	lone-	2A-Mm	.	voice	.	59.503	A-:7
4g-	-some	.	.	.	.	.	.
4b-	ev-	2A-Mm	.	voice	.	60.404	A-:9
4c	-ery	.	.	.	.	.	.
=35	=35	=35	=35	=35	=35	=35	=35
1d-	day	2D-M	newline	voice	A	61.306	D-:maj
.	.	2D-M	.	voice	.	62.205	D-:maj6
=36	=36	=36	=36	=36	=36	=36	=36
1r	.	2D-MM	.	voice	.	63.105	D-:maj7
.	.	2D-M	.	voice	.	64.004	D-:maj6
=37	=37	=37	=37	=37	=37	=37	=37
1r	.	2D-M	.	voice	.	64.904	D-:maj
.	.	2D-M	.	voice	.	65.803	D-:maj6
=38	=38	=38	=38	=38	=38	=38	=38
2r	.	2D-MM	.	voice	.	66.702	D-:maj7
4r	.	2D-M	.	voice	.	67.602	D-:maj6
4a-	I	.	.	.	.	.	.
=39	=39	=39	=39	=39	=39	=39	=39
*>Letter>A	*>Letter>A	*>Letter>A	*>Letter>A	*>Letter>A	*>Letter>A	*>Letter>A	*>Letter>A
*>Label>Verse	*>Label>Verse	*>Label>Verse	*>Label>Verse	*>Label>Verse	*>Label>Verse	*>Label>Verse	*>Label>Verse
2dd-	want	2D-M	newline	voice	.	68.501	D-:maj
4.cc	you	2D-M	.	voice	.	69.393	D-:maj6
8cc	to	.	.	.	.	.	.
=40	=40	=40	=40	=40	=40	=40	=40
4b-	tell	2D-MM	.	voice	.	70.285	D-:maj7
4a-	me	.	.	.	.	.	.
4g	why	2D-M	.	voice	.	71.177	D-:maj6
4a-	you	.	.	.	.	.	.
=41	=41	=41	=41	=41	=41	=41	=41
4r	.	2D-M	.	voice	.	72.069	D-:maj
4b-	walked	.	.	.	.	.	.
8.f	out	2D-M	.	voice	.	72.96	D-:maj6
8.f	on	.	.	.	.	.	.
[8f	me	.	.	.	.	.	.
=42	=42	=42	=42	=42	=42	=42	=42
2f]	_	2D-MM	.	voice	.	73.852	D-:maj7
2r	.	2D-M	.	voice	.	74.744	D-:maj6
=43	=43	=43	=43	=43	=43	=43	=43
2.dd-	I'm	2D-M	newline	voice	.	75.636	D-:maj
.	.	2D-M	.	voice	.	76.52	D-:maj6
4cc	so	.	.	.	.	.	.
=44	=44	=44	=44	=44	=44	=44	=44
4b-	lone-	2D-MM	.	voice	.	77.404	D-:maj7
4a-	-some	.	.	.	.	.	.
4.cc	ev-	2D-M	.	voice	.	78.288	D-:maj6
[8a-	-ery	.	.	.	.	.	.
=45	=45	=45	=45	=45	=45	=45	=45
4a-]	_	2A-Mm	.	voice	.	79.172	A-:7
4g-	day	.	.	.	A	.	.
[2a-	_	2A-Mm	.	voice	.	80.056	A-:9
=46	=46	=46	=46	=46	=46	=46	=46
2.a-]	_	2A-Mm	.	voice	.	80.94	A-:7
.	.	2A-Mm	.	voice	.	81.824	A-:9
4a-	I	.	.	.	.	.	.
=47	=47	=47	=47	=47	=47	=47	=47
2ee-	want	2A-Mm	newline	voice	.	82.708	A-:7
4.dd-	you	2A-Mm	.	voice	.	83.595	A-:9
8dd-	to	.	.	.	.	.	.
=48	=48	=48	=48	=48	=48	=48	=48
4cc	know	2A-Mm	.	voice	.	84.483	A-:7
4a-	that	.	.	.	.	.	.
4g	since	2A-Mm	.	voice	.	85.371	A-:9
4a-	you	.	.	.	.	.	.
=49	=49	=49	=49	=49	=49	=49	=49
4r	.	2A-Mm	.	voice	.	86.259	A-:7
4b-	walked	.	.	.	.	.	.
8.a-	out	2A-Mm	.	voice	.	87.147	A-:9
8.b-	on	.	.	.	.	.	.
[8a-	me	.	.	.	.	.	.
=50	=50	=50	=50	=50	=50	=50	=50
2a-]	_	2A-Mm	.	voice	.	88.034	A-:7
2r	.	2A-Mm	.	voice	.	88.922	A-:9
=51	=51	=51	=51	=51	=51	=51	=51
4b-	No-	2A-Mm	newline	voice	.	89.81	A-:7
4cc	-thin'	.	.	.	.	.	.
4.a-	seems	2A-Mm	.	voice	.	90.702	A-:9
[8cc	to	.	.	.	.	.	.
=52	=52	=52	=52	=52	=52	=52	=52
8cc]	_	2A-Mm	.	voice	.	91.594	A-:7
4a-	be	.	.	.	.	.	.
4b-	the	.	.	.	.	.	.
.	.	2A-Mm	.	voice	.	92.485	A-:9
4g-	same	.	.	.	.	.	.
[8a-	old	.	.	.	.	.	.
=53	=53	=53	=53	=53	=53	=53	=53
8a-]	_	2D-M	.	voice	.	93.377	D-:maj
[8f	way	.	.	.	A	.	.
2.f]	_	.	.	.	.	.	.
.	.	2D-M	.	voice	.	94.269	D-:maj6
=54	=54	=54	=54	=54	=54	=54	=54
1r	.	2D-MM	.	voice	.	95.16	D-:maj7
.	.	2D-M	.	voice	.	96.052	D-:maj6
=55	=55	=55	=55	=55	=55	=55	=55
4.dd-	Think	2D-M	newline	voice	.	96.944	D-:maj
8dd-	a-	.	.	.	.	.	.
4.cc	-bout	2D-M	.	voice	.	97.824	D-:maj6
8cc	the	.	.	.	.	.	.
=56	=56	=56	=56	=56	=56	=56	=56
4b-	love	2D-MM	.	voice	.	98.705	D-:maj7
4a-	that	.	.	.	.	.	.
4g	burns	2D-M	.	voice	.	99.585	D-:maj6
8a-	with-	.	.	.	.	.	.
[8b-	-in	.	.	.	.	.	.
=57	=57	=57	=57	=57	=57	=57	=57
4b-]	_	2D-M	.	voice	.	100.466	D-:maj
8f	my	.	.	.	.	.	.
[8f	heart	.	.	.	.	.	.
4f]	_	2D-M	.	voice	.	101.346	D-:maj6
8e	for	.	.	.	.	.	.
[8f	you	.	.	.	.	.	.
=58	=58	=58	=58	=58	=58	=58	=58
2f]	_	2D-MM	.	voice	.	102.227	D-:maj7
8r	.	2D-M	.	voice	.	103.108	D-:maj6
8f	The	.	.	.	.	.	.
4e-	good	.	.	.	.	.	.
=59	=59	=59	=59	=59	=59	=59	=59
4d-	times	2D-M	newline	voice	.	103.988	D-:maj
4e-	we	.	.	.	.	.	.
4f	had	2D-M	.	voice	.	104.871	D-:maj6
8r	.	.	.	.	.	.	.
[8a-	be	.	.	.	.	.	.
=60	=60	=60	=60	=60	=60	=60	=60
8a-]	_	2D-MM	.	voice	.	105.754	D-:maj7
4a-	fore	.	.	.	.	.	.
8a-	you	.	.	.	.	.	.
4.a-	went	2D-M	.	voice	.	106.637	D-:maj6
8a-	a-	.	.	.	.	.	.
=61	=61	=61	=61	=61	=61	=61	=61
2b-	-way	2G-M	.	voice	A	107.52	G-:maj
2a-	Oh	2D-M	.	voice	.	108.403	D-:maj/3
=62	=62	=62	=62	=62	=62	=62	=62
2.g-	me	1E-m	.	voice	.	109.287	E-:min
4r	.	.	.	.	.	.	.
=63	=63	=63	=63	=63	=63	=63	=63
4g-	Walk	1G-M	newline	voice	.	111.053	G-:maj6
4ee-	right	.	.	.	.	.	.
4.ee-	back	.	.	.	.	.	.
8ee-	to	.	.	.	.	.	.
=64	=64	=64	=64	=64	=64	=64	=64
4ee-	me	1G-M	.	voice	.	112.849	G-:maj6
4dd-	this	.	.	.	.	.	.
8cc	mi-	.	.	.	(B	.	.
8b-	-nute	.	.	.	b)	.	.
4r	.	.	.	.	.	.	.
=65	=65	=65	=65	=65	=65	=65	=65
8r	.	1D-M	.	voice	.	114.645	D-:maj
4dd-	Bring	.	.	.	.	.	.
8dd-	your	.	.	.	.	.	.
4dd-	love	.	.	.	.	.	.
8r	.	.	.	.	.	.	.
8dd-	to	.	.	.	.	.	.
=66	=66	=66	=66	=66	=66	=66	=66
8dd-	me	1D-M	.	voice	.	116.44	D-:maj
4.cc	don't	.	.	.	.	.	.
4b-	send	.	.	.	(B	.	.
4a-	it	.	.	.	b)	.	.
=67	=67	=67	=67	=67	=67	=67	=67
2cc	I'm	2A-Mm	.	voice	.	118.236	A-:7
2b-	so	2A-Mm	.	voice	.	119.134	A-:9
=68	=68	=68	=68	=68	=68	=68	=68
4a-	lone-	2A-Mm	.	voice	.	120.032	A-:7
4g-	-some	.	.	.	.	.	.
4b-	ev-	2A-Mm	.	voice	.	120.93	A-:9
4c	-ery	.	.	.	.	.	.
=69	=69	=69	=69	=69	=69	=69	=69
1d-	day	2D-M	newline	voice	A	121.828	D-:maj
.	.	2D-M	.	voice	.	122.725	D-:maj6
=70	=70	=70	=70	=70	=70	=70	=70
1r	.	2D-MM	.	voice	.	123.621	D-:maj7
.	.	2D-M	.	voice	.	124.517	D-:maj6
=71	=71	=71	=71	=71	=71	=71	=71
2cc	I'm	2A-Mm	.	voice	.	125.414	A-:7
2b-	so	2A-Mm	.	voice	.	126.31	A-:9
=72	=72	=72	=72	=72	=72	=72	=72
4a-	lone-	2A-Mm	.	voice	.	127.207	A-:7
4g-	-some	.	.	.	.	.	.
4b-	ev-	2A-Mm	.	voice	.	128.103	A-:9
4c	-ery	.	.	.	.	.	.
=73	=73	=73	=73	=73	=73	=73	=73
*>Label>>Fadeout	*>Label>>Fadeout	*>Label>>Fadeout	*>Label>>Fadeout	*>Label>>Fadeout	*>Label>>Fadeout	*>Label>>Fadeout	*>Label>>Fadeout
1d-	day	2D-M	newline	voice	.	128.999	D-:maj
.	.	2D-M	.	voice	.	129.907	D-:maj6
=74	=74	=74	=74	=74	=74	=74	=74
1r	.	2D-MM	.	voice	.	130.815	D-:maj7
.	.	2D-M	.	voice	.	131.722	D-:maj6
r;	.	1r;	.	r	.	136.941	N.C.
r;	.	1r;	.	r	.	138.945	N.C.
*-	*-	*-	*-	*-	*-	*-	*-
!!!BillboardChartDate: 1961/05/01
!!!BillboardPeak: 7
!!!BillboardWeeksOnChart: 13
!!!COC: The Everly Brothers
!!!ENC: Nathaniel Condit-Schultz
!!!EST: Awating manual error checking and editing.
!!!OTL: Walk Right Back
!!!RDF**chordsym: original McGill chord annotation + (implied pitch class set, with bass pitch in first position)
!!!RDF**harmony: **recip + pitch class of root + harmonic quality
!!!RDF**leadinstrument: original McGill primary instrumentation annotation
!!!RDF**phrase: newline = linebreak in original McGill transcription
!!!RDF**timestamp: McGill audio timestamp in seconds
!!!RDT: 2017/01/12/
!!!SampleActualRank: 50
!!!SampleID#: 0153
!!!SampleTargetRank: 52
